X:1
T: Miss Ritchie
C:
R:Reel
Q: 232
K:G
M:4/4
L:1/8
|:B|G2 GA GB de|dB GB cA AB|G2 GA GB de|dB cA GG GB|
G2 GA GB de|dB GB cA AB|G2 GA GB de|dB cA GG GB|
Gg ga bg af|ge dB cA AB|Gg ga bg af|ge dB GG GB|
Gg ga bg af|ge dB cA AB|GD DE GA Bg|dB cA GG G:|
